icons/svg/water-pump.svg

﻿<?xml version="1.0" encoding="utf-8"?>
<!DOCTYPE svg PUBLIC "-//W3C//DTD SVG 1.1//EN" "http://www.w3.org/Graphics/SVG/1.1/DTD/svg11.dtd">
<svg xmlns="http://www.w3.org/2000/svg" xmlns:xlink="http://www.w3.org/1999/xlink" version="1.1" baseProfile="full" width="24" height="24" viewBox="0 0 24.00 24.00" enable-background="new 0 0 24.00 24.00" xml:space="preserve">
	<path fill="#000000" fill-opacity="1" stroke-width="0.2" stroke-linejoin="round" d="M 19,14.5C 19,14.5 21,16.667 21,18C 21,19.104 20.104,20 19,20C 17.896,20 17,19.104 17,18C 17,16.667 19,14.5 19,14.5 Z M 5,18L 5,9.00001C 3.89543,9.00001 3,8.10458 3,7.00001C 3,5.89544 3.89543,5.00001 5,5.00001L 5.00001,4.00001C 5.00001,2.89544 5.89543,2.00001 7,2.00001L 9.00001,2.00002C 10.1046,2.00002 11,2.89544 11,4.00001L 11,5.00001L 19,5.00001C 20.1046,5.00001 21,5.89544 21,7.00001L 21,9L 21,11C 21.5523,11 22,11.4477 22,12C 22,12.5523 21.5523,13 21,13L 17,13C 16.4477,13 16,12.5523 16,12C 16,11.4477 16.4477,11 17,11L 17,9L 11,9.00001L 11,18L 12,18C 13.1046,18 14,18.8954 14,20L 14,22L 2,22L 2,20C 2,18.8954 2.89543,18 4,18L 5,18 Z "/>
</svg>

<svg xmlns="http://www.w3.org/2000/svg" version="1.1" baseProfile="full" width="24" height="24" viewBox="0 0 24.00 24.00" xml:space="preserve"><path fill="#000" fill-opacity="1" stroke-width=".2" stroke-linejoin="round" d="M19 14.5s2 2.167 2 3.5c0 1.104-.896 2-2 2s-2-.896-2-2c0-1.333 2-3.5 2-3.5zM5 18V9c-1.105 0-2-.895-2-2s.895-2 2-2V4c0-1.105.895-2 2-2h2c1.105 0 2 .895 2 2v1h8c1.105 0 2 .895 2 2v4c.552 0 1 .448 1 1s-.448 1-1 1h-4c-.552 0-1-.448-1-1s.448-1 1-1V9h-6v9h1c1.105 0 2 .895 2 2v2H2v-2c0-1.105.895-2 2-2h1z"/></svg>
